!!!!SEGMENT: pl-kk--kk-i-350--001_anonim--gaudeamus.krn
!!!cenid: 17xx:2061
!!!COM: Anonim
!!!COM-rismid: pe30004985
!!!CDT:
!!!CNT:
!!!OTL: Gaudeamus
!!!PDT:
!!!AGN: Sacred
!!!SMS-siglum: PL-Kk
!!!SMS-shelfmark: Kk.I.350
!!!SMS-shelfwork: 001 W
!!!SMS-variant:
!!!SMS-altvar:
!!!NIFC-rismid: 1001145745
!!!URL-scan: http://repozytorium.nifc.pl/skany/pl-kk-nut--i-350
!!!ONB-nifc: UWAGA: utwory w zbiorze: 1. Gaudeamus, 2. Alleluia assumpta est Maria, 3. Surge propera, 4. Gaudeamus, 5. Propter veritatem, 6. Quae est ista, 7. Gaudeamus omnes, 8. Alleluia assumpta est Maria, 9. Nigra sum
**kern	**text	**kern	**text	**text	**kern	**text	**text	**kern	**text	**text
*part4	*part4	*part3	*part3	*part3	*part2	*part2	*part2	*part1	*part1	*part1
*staff4	*staff4	*staff3	*staff3	*staff3	*staff2	*staff2	*staff2	*staff1	*staff1	*staff1
*I"Baſso Eripieno	*	*I"Tenore	*	*	*I"Alto	*	*	*I"Canto	*	*
*I'B rip	*	*I'T.	*	*	*I'A.	*	*	*I'C.	*	*
*clefF4	*	*clefC4	*	*	*clefC3	*	*	*clefC1	*	*
*k[]	*	*k[]	*	*	*k[]	*	*	*k[]	*	*
*M3/2	*	*M3/2	*	*	*M3/2	*	*	*M3/2	*	*
=1	=1	=1	=1	=1	=1	=1	=1	=1	=1	=1
2r	.	2r	.	.	2r	.	.	2r	.	.
*2\right	*	*2\right	*	*	*2\right	*	*	*2\right	*	*
2c\	Gau-	2c\	Gau-	.	2g\	Gau-	.	2ee\	Gau-	.
2G\	-de-	2B\	-de-	.	2f\	-de	.	2dd\	-de-	.
=2	=2	=2	=2	=2	=2	=2	=2	=2	=2	=2
4C/	-a-	1G/	-a-	.	1e\	a-	.	1cc\	-a-	.
4D/	.	.	.	.	.	.	.	.	.	.
4E/	.	.	.	.	.	.	.	.	.	.
4F/	.	.	.	.	.	.	.	.	.	.
2G\	-mus	2G/	-mus	.	2d\	-mus	.	2b\	-mus	.
=3	=3	=3	=3	=3	=3	=3	=3	=3	=3	=3
4G\	om-	4B\	om-	.	2g\	om-	.	4dd\	om-	.
4A\	.	4c\	.	.	.	.	.	4cc\	.	.
4B\	-nes	4d\	-nes	.	2g\	-nes	.	4b\	-nes	.
4A\	.	4c\	.	.	.	.	.	4cc\	.	.
4B\	in	4d\	in	.	2g\	in	.	4b\	in	.
4G\	.	4B\	.	.	.	.	.	4dd\	.	.
=4	=4	=4	=4	=4	=4	=4	=4	=4	=4	=4
4c\	Do-	2.c\	Do-	.	2.g\	Do-	.	2.ee\	Do-	.
4G\	.	.	.	.	.	.	.	.	.	.
4E\	.	.	.	.	.	.	.	.	.	.
4G\	-mi-	4G/	-mi-	.	4f\	-mi-	.	4dd\	-mi-	.
2C/	-no	2G/	-no,	.	2e\	-no	.	2cc\	-no,	.
!LO:LB:g=original	!	!	!	!	!	!	!	!	!	!
=5	=5	=5	=5	=5	=5	=5	=5	=5	=5	=5
2r	.	2r	.	.	2r	.	.	2r	.	.
2C/	di-	2c\	Di-	.	2a\	Di-	.	2ff\	Di-	.
2C/	-em	2c\	-em	.	2g\	-em	.	2ee\	-em	.
!	!	!	!	!	!	!	!	!LO:LB:g=original	!	!
=6	=6	=6	=6	=6	=6	=6	=6	=6	=6	=6
2BB/	fe-	2G/	fes-	.	1f\	fes-	.	1dd\	fes-	.
2GG/	.	2B/	.	.	.	.	.	.	.	.
2C/	-stum	2G/	-tum	.	2e\	-tum	.	2cc\	-tum	.
!	!	!LO:LB:g=original	!	!	!LO:LB:g=original	!	!	!	!	!
=7	=7	=7	=7	=7	=7	=7	=7	=7	=7	=7
4C\	ce-	1G/	ce-	.	4e\	ce-	.	1cc\	ce-	.
4D\	.	.	.	.	4f\	.	.	.	.	.
4E\	.	.	.	.	4g\	.	.	.	.	.
4D\	.	.	.	.	4f\	.	.	.	.	.
4E\	-le-	4c\	-le-	.	4g\	-le-	.	4cc\	-le-	.
4F\	.	4d\	.	.	4a\	.	.	4a\	.	.
=8	=8	=8	=8	=8	=8	=8	=8	=8	=8	=8
2G\	-bran-	2c\	-bran-	.	2g\	-bran-	.	2g\	-bran-	.
2GG/	-tes	2B\	-tes	.	2g\	-tes	.	2g\	-tes	.
4G\	sub	4B\	sub	.	4f\	sub	.	4dd\	sub	.
4G\	ho-	4B\	ho-	.	4f\	ho-	.	4dd\	ho-	.
=9	=9	=9	=9	=9	=9	=9	=9	=9	=9	=9
2G\	-no-	2B\	-no-	.	4f\	-no-	.	4dd\	-no-	.
.	.	.	.	.	4e\	.	.	4cc\	.	.
2G\	-re	2B\	-re	.	4d\	-re	.	4b\	-re	.
.	.	.	.	.	4e\	.	.	4cc\	.	.
!	!	!LO:SIC:o:t:v=alternatywny tekst pisany innym charakterem	!	!	!LO:SIC:o:t:v=alternatywny tekst pisany innym charakterem	!	!	!LO:SIC:o:t:v=alternatywny tekst pisany innym charakterem	!	!
2G\	be-	2B\	be-	be-	4f\	be-	be-	4dd\	be-	be-
.	.	.	.	.	4d\	.	.	4b\	.	.
=10	=10	=10	=10	=10	=10	=10	=10	=10	=10	=10
4B\	-a-	4d\	-a-	-a-	2g\	-a-	-a-	4b\	-a-	-a-
4A\	.	4c\	.	.	.	.	.	4cc\	.	.
!LO:LB:g=original	!	!	!	!	!	!	!	!	!	!
4G\	-ta	4B\	-tae	-ti	2g\	-tae	-ti	4dd\	-tae	-ti
4A\	.	4c\	.	.	.	.	.	4cc\	.	.
4B\	Ma-	4d\	Ma-	Pau-	2g\	Ma-	Pau-	4b\	Ma-	Pau-
4G\	.	4B\	.	.	.	.	.	4dd\	.	.
!	!	!	!	!	!	!	!	!LO:LB:g=original	!	!
=11	=11	=11	=11	=11	=11	=11	=11	=11	=11	=11
2c\	-ri-	2c\	-ri-	-li	2g\	-ri-	-li	2ee\	-ri-	-li
2G\	.	2B\	.	.	2f\	.	.	2dd\	.	.
4E\	-ae	2G/	-ae	a-	2e\	-ae	a-	2cc\	-a	a-
4C\	.	.	.	.	.	.	.	.	.	.
!	!	!	!	!	!LO:LB:g=original	!	!	!	!	!
=12	=12	=12	=12	=12	=12	=12	=12	=12	=12	=12
2.G\	Vir-	2.G/	vir-	-po-	2.d\	vir-	-po-	2.b\	vir-	-po-
4G\	-gi-	4G/	-gi-	-sto-	4d\	-gi-	-sto-	4b\	-gi-	-sto-
2G\	-nis	2G/	-nis	-li	2d\	-nis	-li	2b\	-nis	-li
!	!	!LO:LB:g=original	!	!	!	!	!	!	!	!
=13	=13	=13	=13	=13	=13	=13	=13	=13	=13	=13
4G\	de-	4G/	de	de	4d\	de	de	4b\	de	de
4GG/	-cu-	4G/	cu-	cu-	4d\	cu-	cu-	4b\	cu-	cu-
4BB/	-jus	4G/	-jus	-ius	4d\	-jus	-ius	4b\	-jus	-ius
4D/	as-	4G/	aſ-	So-	4d\	aſ-	So-	4b\	as-	So-
4G\	-sump-	4G/	-sum-	-lem-	4e\	-sum-	-lem-	4cc\	-sum-	-lem-
4F\	-ti-	4G/	-ti-	-ni-	4f\	-ti-	-ni-	4dd\	-ti-	-ni-
=14	=14	=14	=14	=14	=14	=14	=14	=14	=14	=14
4E\	-o-	1c\	-o-	-ta-	1g\	-o-	-ta-	1ee\	-o-	-ta-
4C\	.	.	.	.	.	.	.	.	.	.
4E\	.	.	.	.	.	.	.	.	.	.
4G\	.	.	.	.	.	.	.	.	.	.
2c\	-ne	2c\	-ne	-te	2g\	-ne	-ti-	2ee\	-ne	-ti-
=15	=15	=15	=15	=15	=15	=15	=15	=15	=15	=15
4d\	gau-	1B\	gau-	.	1g\	gau-	.	4ff\	gau-	.
4c\	.	.	.	.	.	.	.	4ee\	.	.
4B\	.	.	.	.	.	.	.	4dd\	.	.
4A\	.	.	.	.	.	.	.	4cc\	.	.
!LO:LB:g=original	!	!	!	!	!	!	!	!	!	!
4G\	-dent	2B\	-dent	.	2g\	-dent	.	4b\	.	.
4F\	.	.	.	.	.	.	.	4a\	-dent	.
=16	=16	=16	=16	=16	=16	=16	=16	=16	=16	=16
2.E\	an-	2.c\	an-	.	2.e\	An-	.	2.g/	an-	.
4D\	-ge-	4d\	-ge-	.	4f\	-ge-	.	4f/	-ge-	.
2C/	-li	2e\	-li	.	2g\	-li	.	2e/	-li	.
!	!	!	!	!	!	!	!	!LO:LB:g=original	!	!
=17	=17	=17	=17	=17	=17	=17	=17	=17	=17	=17
2BB/	et	2B\	et	.	2d\	et	.	2g\	et	.
2GG/	.	2d\	.	.	2f\	.	.	2b\	.	.
2C/	col-	2c\	col-	.	2e\	col-	.	2cc\	col-	.
!	!	!	!	!	!LO:LB:g=original	!	!	!	!	!
=18	=18	=18	=18	=18	=18	=18	=18	=18	=18	=18
2G\	-lau-	2c\	-lau-	.	2e\	-lau-	.	2ee\	-lau-	.
2F\	.	2B\	.	.	2f\	.	.	2dd\	.	.
2E\	-dant	2c\	-dant	.	2g\	-dant	.	2cc\	-dant	.
!	!	!LO:LB:g=original	!	!	!	!	!	!	!	!
=19	=19	=19	=19	=19	=19	=19	=19	=19	=19	=19
2.D/	fi-	2.G/	fi-	.	2.f\	fi-	.	2.b\	fi-	.
4D/	-li-	4G/	-li-	.	4f\	-li-	.	4b\	-li-	.
2C/	-um	2G/	-um	.	2e\	-um	.	2cc\	-um	.
=20	=20	=20	=20	=20	=20	=20	=20	=20	=20	=20
2F\	De-	2A/	De-	.	2f\	De-	.	2dd\	De-	.
2G\	.	1G/	.	.	2e\	.	.	2cc\	.	.
2GG/	.	.	.	.	2d\	.	.	2b\	.	.
=21	=21	=21	=21	=21	=21	=21	=21	=21	=21	=21
2C/	-i	2G/	-i	.	2e\	-i	.	2cc\	-i	.
2F/	fi-	2c\	fi-	.	2c\	fi-	.	2a\	fi-	.
4C/	-li-	4c\	-li-	.	4c\	-li-	.	4g\	-li-	.
4C/	-um	4c\	-um	.	4c\	-um	.	4g\	-um	.
!LO:LB:g=original	!	!	!	!	!	!	!	!	!	!
=22	=22	=22	=22	=22	=22	=22	=22	=22	=22	=22
1.F\	De-	1.c\	De-	.	1.c\	De-	.	1.a\	De-	.
=23	=23	=23	=23	=23	=23	=23	=23	=23	=23	=23
1.C/	-i	1.c\	-i	.	1.e\	-i	.	1.g\	-i	.
!LO:LB:g=original	!	!LO:LB:g=original	!	!	!LO:LB:g=original	!	!	!LO:LB:g=original	!	!
=24	=24	=24	=24	=24	=24	=24	=24	=24	=24	=24
*clefF4	*	*clefC4	*	*	*clefC3	*	*	*clefC1	*	*
*M2/2	*	*M2/2	*	*	*M2/2	*	*	*M2/2	*	*
*met(c|)	*	*met(c|)	*	*	*met(c|)	*	*	*met(c|)	*	*
!	!	!	!	!	!	!	!	!LO:SIC:o:t:v=alternatywny tekst napisany innym charakterem pisma	!	!
4C\	E-	1c\	E-	Domine	1g\	E-	.	1ee\	E-	Domine
4D\	.	.	.	.	.	.	.	.	.	.
4E\	.	.	.	.	.	.	.	.	.	.
4F\	.	.	.	.	.	.	.	.	.	.
=25	=25	=25	=25	=25	=25	=25	=25	=25	=25	=25
4G\	.	1B\	-ruc-	Probastime	1g\	-rec-	.	1dd\	-ruc-	Probastime
4A\	.	.	.	.	.	.	.	.	.	.
4B\	-ruc-	.	.	.	.	.	.	.	.	.
4G\	.	.	.	.	.	.	.	.	.	.
=26	=26	=26	=26	=26	=26	=26	=26	=26	=26	=26
4c\	-ta-	1c\	-ta-	et	1g\	-ta-	.	1ee\	-ta-	et
4G\	.	.	.	.	.	.	.	.	.	.
4E\	.	.	.	.	.	.	.	.	.	.
4C\	.	.	.	.	.	.	.	.	.	.
=27	=27	=27	=27	=27	=27	=27	=27	=27	=27	=27
2G\	-vit	2B\	-vit	co-	2g\	-vit	.	2dd\	-vit	cognovisti
2c\	cor	2c\	cor	-gno-	2g\	cor	.	2ee\	cor	me
=28	=28	=28	=28	=28	=28	=28	=28	=28	=28	=28
4d\	me-	(4d\	me-	-vis-	1g\	me-	.	4ff\	me-	tu
4c\	.	4c\)	.	.	.	.	.	4ee\	.	co-
4B\	.	4d\|	.	-sti	.	.	.	4ff\	.	-gno-
4G\	.	4B\|	.	me	.	.	.	4dd\	.	-vis-
=29	=29	=29	=29	=29	=29	=29	=29	=29	=29	=29
2c\	-um	2c\	-um	tu	2g\	-um	.	2ee\	-um	-ti
4E\	ver-	4c\	ver-	cog-	4g\	ver-	.	4ee\	ver-	Re-
4C\	-bum	4c\	-bum	-no-	4e\	-bum	.	4ee\	-bum	-sur-
=30	=30	=30	=30	=30	=30	=30	=30	=30	=30	=30
1G\	bo-	2B\	bo-	-vis-	2d\	bo-	.	2dd\	bo-	-re-
.	.	4c\	.	-ti	2g\	.	.	4ee\	.	-cti-
.	.	4B\	.	.	.	.	.	4dd\	.	-o-
!LO:LB:g=original	!	!	!	!	!	!	!	!	!	!
=31	=31	=31	=31	=31	=31	=31	=31	=31	=31	=31
4F\	.	1A\	.	seſsionem	4a\	.	.	1cc\	.	-nem
4D\	.	.	.	.	4f#X\	.	.	.	.	.
4E\	.	.	.	.	4g\	.	.	.	.	.
4F\	.	.	.	.	4a\	.	.	.	.	.
!	!	!LO:LB:g=original	!	!	!	!	!	!LO:LB:g=original	!	!
=32	=32	=32	=32	=32	=32	=32	=32	=32	=32	=32
2G\	-num	2G/	-num	me-	2g\	-num	.	2b\	-num	et
!	!	!	!	!	!LO:LB:g=original	!	!	!	!	!
4G\	di-	4G/	di-	-a,	4d\	di-	.	4b\	di-	Re-
4G\	-co	4B/	-co	et	4e\	-co	.	4cc\	-co	-sur-
=33	=33	=33	=33	=33	=33	=33	=33	=33	=33	=33
2.G\	e-	2B\	e-	re-	2f#X\	e-	.	2dd\	e-	-re-
.	.	4G/	.	-sur-	4e\	.	.	4cc\	.	-cti-
4G\	-go	4G/	-go	-re-	4d\	-go	.	4b\	-go	-o-
=34	=34	=34	=34	=34	=34	=34	=34	=34	=34	=34
4E\	o-	4G/	o-	-cti-	4e\	o-	.	4cc\	o-	-nem
4D\	-pe-	4B\	-pe-	-o=-	4f\	-pe-	.	4dd\	-pe-	me-
2C/	-ra	2c\	-ra	-nem	2g\	-ra	.	2ee\	-ra	-am
=35	=35	=35	=35	=35	=35	=35	=35	=35	=35	=35
2BB/	me-	2A/	me-	me-	2f\	me-	.	2dd\	me-	.
2C/	-a	2G/	-a	.	2e\	-a	.	2cc\	-a	.
=36	=36	=36	=36	=36	=36	=36	=36	=36	=36	=36
2G\	Re-	1G/	Re-	-am	2e\	Re-	.	2cc\	Re-	.
2GG/	.	.	.	.	2d\	.	.	2b\	.	.
=37	=37	=37	=37	=37	=37	=37	=37	=37	=37	=37
1C/	-gi	1G/	-gi	.	1e\	-gi	.	1cc\	-gi	.
!LO:LB:g=original	!	!LO:LB:g=original	!	!	!LO:LB:g=original	!	!	!LO:LB:g=original	!	!
=38	=38	=38	=38	=38	=38	=38	=38	=38	=38	=38
*clefF4	*	*clefC4	*	*	*clefC3	*	*	*clefC1	*	*
*M3/2	*	*M3/2	*	*	*M3/2	*	*	*M3/2	*	*
4AA/	Glo-	1A\	Glo-	.	1e\	Glo-	.	1cc\	Glo-	.
4BB/	.	.	.	.	.	.	.	.	.	.
4C/	.	.	.	.	.	.	.	.	.	.
4BB/	.	.	.	.	.	.	.	.	.	.
4C/	-ri-	4A/	-ri-	.	4e\	-ri-	.	4cc\	-ri-	.
4AA/	-a	4A/	-a	.	4e\	-a	.	4cc\	-a	.
=39	=39	=39	=39	=39	=39	=39	=39	=39	=39	=39
2E\	Pa-	2A/	Pa-	.	2e\	Pa-	.	2cc\	Pa-	.
2E\	-tri	2G#X/	-tri	.	2e\	-tri	.	2b\	-tri	.
2r	.	2r	.	.	2r	.	.	2r	.	.
=40	=40	=40	=40	=40	=40	=40	=40	=40	=40	=40
4B\	glo-	4G#X/	glo-	.	1e\	glo-	.	4dd\	glo-	.
4A\	.	4A/	.	.	.	.	.	4cc\	.	.
4G#X\	.	4B/	.	.	.	.	.	4dd\	.	.
4F\	.	4A/	.	.	.	.	.	4cc\	-ri-	.
4E\	-ri-	4G#/	-ri-	.	4e\	-ri-	.	2b\	-a	.
4D\	-a	4G#/	-a	.	4e\	-a	.	.	.	.
=41	=41	=41	=41	=41	=41	=41	=41	=41	=41	=41
4C/	fi-	4A/	fi-	.	4e\	Fi-	.	4cc\	fi-	.
4BB/	-li-	4G#X/	-li-	.	4d\	-li-	.	4dd\	-li-	.
2AA/	-o	2A/	-o	.	2c\	-o	.	2ee\	-o	.
4AA/	et	4c\	et	.	4e\	et	.	4ee\	et	.
4A\	Spi-	4c\	spi-	.	4e\	Spi-	.	4ee\	Spi-	.
=42	=42	=42	=42	=42	=42	=42	=42	=42	=42	=42
2A\	-ri-	2c\	-ri-	.	2e\	-ri-	.	2ee\	-ri-	.
2G#X\	-tu-	2B\	-tu-	.	2e\	-tu-	.	2dd\	-tu-	.
2A\	-i	2A\	-i	.	2e\	-i	.	2cc\	-i	.
!LO:LB:g=original	!	!LO:LB:g=original	!	!	!	!	!	!	!	!
=43	=43	=43	=43	=43	=43	=43	=43	=43	=43	=43
2E\	San-	2A/	san-	.	2e\	San-	.	2cc\	san-	.
2E\	-cto	2G#X/	-cto	.	2e\	-cto	.	2b\	-cto	.
2r	.	2r	.	.	2r	.	.	2r	.	.
!	!	!	!	!	!LO:LB:g=original	!	!	!LO:LB:g=original	!	!
=44	=44	=44	=44	=44	=44	=44	=44	=44	=44	=44
4C/	Si-	4c\	Si-	.	4e\	Si-	.	4cc\	Si-	.
4D/	.	4B\	.	.	4f\	.	.	4dd\	.	.
4E/	.	2c\	.	.	4g\	.	.	4cc\	.	.
4F/	.	.	.	.	4a\	.	.	4dd\	.	.
4E/	.	4c\	.	.	4g\	.	.	4cc\	-cut	.
4D/	-cut	4B\	-cut	.	4f\	-cut	.	4dd\	.	.
=45	=45	=45	=45	=45	=45	=45	=45	=45	=45	=45
4C/	e-	1c\	e-	.	4e\	e-	.	1g\	e-	.
4E/	.	.	.	.	4g\	.	.	.	.	.
4C/	.	.	.	.	4e\	.	.	.	.	.
4E/	.	.	.	.	4g\	.	.	.	.	.
2G\	-rat	2B\	-rat	.	2d\	-rat	.	2g/	-rat	.
=46	=46	=46	=46	=46	=46	=46	=46	=46	=46	=46
4G\	e-	4B\	e-	.	4g\	e-	.	4dd\	e-	.
4A\	-rat	4c\	-rat	.	4g\	-rat	.	4cc\	-rat	.
4B\	in	4d\	in	.	2g\	in	.	4b\	in	.
4A\	.	4c\	.	.	.	.	.	4cc\	.	.
4B\	prin-	4d\	prin-	.	2g\	prin-	.	4b\	prin-	.
4G\	.	4B\	.	.	.	.	.	4dd\	.	.
=47	=47	=47	=47	=47	=47	=47	=47	=47	=47	=47
4c\	-ci-	2.c\	-ci-	.	2.g\	-ci-	.	2.ee\	-ci-	.
4G\	.	.	.	.	.	.	.	.	.	.
4E\	.	.	.	.	.	.	.	.	.	.
4G\	-pi-	4d\	-pi-	.	4f\	-pi-	.	4dd\	-pi-	.
2C/	-o	2e\	-o	.	2e\	-o	.	2cc\	-o	.
=48	=48	=48	=48	=48	=48	=48	=48	=48	=48	=48
4C/	et	2G/	et	.	4e\	et	.	2cc\	et	.
4D/	.	.	.	.	4f\	.	.	.	.	.
!LO:LB:g=original	!	!	!	!	!	!	!	!	!	!
4E\	nunc	2G/	nunc	.	4g\	nunc	.	2cc\	nunc	.
4D\	.	.	.	.	4f\	.	.	.	.	.
4E\	et	2G/	et	.	4g\	et	.	2cc\	et	.
4F\	.	.	.	.	4a\	.	.	.	.	.
!	!	!LO:LB:g=original	!	!	!LO:LB:g=original	!	!	!	!	!
=49	=49	=49	=49	=49	=49	=49	=49	=49	=49	=49
2G\	sem-	2B\	sem-	.	2g\	sem-	.	2dd\	sem-	.
2GG/	-per	2B\	-per	.	2g\	-per	.	2dd\	-per	.
2r	.	2r	.	.	2r	.	.	2r	.	.
!	!	!	!	!	!	!	!	!LO:LB:g=original	!	!
=50	=50	=50	=50	=50	=50	=50	=50	=50	=50	=50
2G\	et	2B\	et	.	1f\	et	.	1dd\	et	.
2B\	.	2d\	.	.	.	.	.	.	.	.
2G\	in	2B\	in	.	2f\	in	.	2dd\	in	.
=51	=51	=51	=51	=51	=51	=51	=51	=51	=51	=51
2.c\	Sae-	2.G/	sae-	.	2.g\	sae-	.	2.ee\	sae-	.
4G\	-cu-	4B\	-cu-	.	4f\	-cu-	.	4dd\	-cu-	.
2C/	-la	2c\	-la	.	2e\	-la	.	2cc\	-la	.
=52	=52	=52	=52	=52	=52	=52	=52	=52	=52	=52
2GG/	Sae-	2d\	sae-	.	2d\	sae-	.	2b\	sae-	.
2G\	.	2c\	.	.	2e\	.	.	2cc\	.	.
2G\	-cu-	2B\	-cu-	.	2f\	-cu-	.	2dd\	-cu-	.
=53	=53	=53	=53	=53	=53	=53	=53	=53	=53	=53
2C/	-lo-	1G/	-lo-	.	2g\	-lo-	.	2ee\	-lo-	.
2D/	.	.	.	.	2f\	.	.	2dd\	.	.
2E/	-rum	2G/	-rum	.	2e\	-rum	.	2cc\	-rum	.
=54	=54	=54	=54	=54	=54	=54	=54	=54	=54	=54
2F\	a-	2A/	a-	.	2f\	a-	.	2dd\	a-	.
2G\	.	1G/	.	.	2e\	.	.	2cc\	.	.
2GG/	.	.	.	.	2d\	.	.	2b\	.	.
=55	=55	=55	=55	=55	=55	=55	=55	=55	=55	=55
1.C/	-men.	1G/	-men	.	1e\	-men	.	1cc\	-men	.
.	.	2r	.	.	2r	.	.	2r	.	.
!	!	!	!	!	!	!	!	!LO:TX:a:t=Gaudeamus Da\n Capo	!	!
==	==	==	==	==	==	==	==	==	==	==
*-	*-	*-	*-	*-	*-	*-	*-	*-	*-	*-
!!!system-decoration: [(s1,s2,s3,s4)]
!!!EED: Leszek Kubiak
!!!EST: 2021-02-26
!!!ENC: Berenika Jozajtis
!!!END:2021-02-17
!!!RDF**kern: | = vertical stroke
